projects/js-packages/social-logos/src/svg/instagram.svg

<svg enable-background="new 0 0 24 24" viewBox="0 0 24 24" xmlns="http://www.w3.org/2000/svg"><path d="m12 4.622c2.403 0 2.688.009 3.637.052.877.04 1.354.187 1.671.31.42.163.72.358 1.035.673s.51.615.673 1.035c.123.317.27.794.31 1.671.043.949.052 1.234.052 3.637s-.009 2.688-.052 3.637c-.04.877-.187 1.354-.31 1.671-.163.42-.358.72-.673 1.035s-.615.51-1.035.673c-.317.123-.794.27-1.671.31-.949.043-1.233.052-3.637.052s-2.688-.009-3.637-.052c-.877-.04-1.354-.187-1.671-.31-.42-.163-.72-.358-1.035-.673s-.51-.615-.673-1.035c-.123-.317-.27-.794-.31-1.671-.043-.949-.052-1.234-.052-3.637s.009-2.688.052-3.637c.04-.877.187-1.354.31-1.671.163-.42.358-.72.673-1.035s.615-.51 1.035-.673c.317-.123.794-.27 1.671-.31.949-.043 1.234-.052 3.637-.052m0-1.622c-2.444 0-2.751.01-3.711.054-.958.044-1.612.196-2.184.418-.592.23-1.094.538-1.594 1.039-.5.5-.808 1.002-1.038 1.594-.223.572-.375 1.226-.419 2.184-.044.96-.054 1.267-.054 3.711s.01 2.751.054 3.711c.044.958.196 1.612.418 2.185.23.592.538 1.094 1.038 1.594s1.002.808 1.594 1.038c.572.222 1.227.375 2.185.418.96.044 1.267.054 3.711.054s2.751-.01 3.711-.054c.958-.044 1.612-.196 2.185-.418.592-.23 1.094-.538 1.594-1.038s.808-1.002 1.038-1.594c.222-.572.375-1.227.418-2.185.044-.96.054-1.267.054-3.711s-.01-2.751-.054-3.711c-.044-.958-.196-1.612-.418-2.185-.23-.592-.538-1.094-1.038-1.594s-1.002-.808-1.594-1.038c-.572-.222-1.227-.375-2.185-.418-.96-.044-1.267-.054-3.711-.054zm0 4.378c-2.552 0-4.622 2.069-4.622 4.622s2.07 4.622 4.622 4.622 4.622-2.069 4.622-4.622-2.07-4.622-4.622-4.622zm0 7.622c-1.657 0-3-1.343-3-3s1.343-3 3-3 3 1.343 3 3-1.343 3-3 3zm4.804-8.884c-.596 0-1.08.484-1.08 1.08s.484 1.08 1.08 1.08 1.08-.484 1.08-1.08-.483-1.08-1.08-1.08z"/></svg>

<?xml version="1.0" encoding="iso-8859-1"?>
<!-- Generator: Adobe Illustrator 19.2.1, SVG Export Plug-In . SVG Version: 6.00 Build 0)  -->
<svg version="1.1" xmlns="http://www.w3.org/2000/svg" xmlns:xlink="http://www.w3.org/1999/xlink" x="0px" y="0px"
	 viewBox="0 0 24 24" style="enable-background:new 0 0 24 24;" xml:space="preserve">
<g id="instagram">
	<path d="M12,4.622c2.403,0,2.688,0.009,3.637,0.052c0.877,0.04,1.354,0.187,1.671,0.31c0.42,0.163,0.72,0.358,1.035,0.673
		c0.315,0.315,0.51,0.615,0.673,1.035c0.123,0.317,0.27,0.794,0.31,1.671c0.043,0.949,0.052,1.234,0.052,3.637
		s-0.009,2.688-0.052,3.637c-0.04,0.877-0.187,1.354-0.31,1.671c-0.163,0.42-0.358,0.72-0.673,1.035
		c-0.315,0.315-0.615,0.51-1.035,0.673c-0.317,0.123-0.794,0.27-1.671,0.31c-0.949,0.043-1.233,0.052-3.637,0.052
		s-2.688-0.009-3.637-0.052c-0.877-0.04-1.354-0.187-1.671-0.31c-0.42-0.163-0.72-0.358-1.035-0.673
		c-0.315-0.315-0.51-0.615-0.673-1.035c-0.123-0.317-0.27-0.794-0.31-1.671C4.631,14.688,4.622,14.403,4.622,12
		s0.009-2.688,0.052-3.637c0.04-0.877,0.187-1.354,0.31-1.671c0.163-0.42,0.358-0.72,0.673-1.035
		c0.315-0.315,0.615-0.51,1.035-0.673c0.317-0.123,0.794-0.27,1.671-0.31C9.312,4.631,9.597,4.622,12,4.622 M12,3
		C9.556,3,9.249,3.01,8.289,3.054C7.331,3.098,6.677,3.25,6.105,3.472C5.513,3.702,5.011,4.01,4.511,4.511
		c-0.5,0.5-0.808,1.002-1.038,1.594C3.25,6.677,3.098,7.331,3.054,8.289C3.01,9.249,3,9.556,3,12c0,2.444,0.01,2.751,0.054,3.711
		c0.044,0.958,0.196,1.612,0.418,2.185c0.23,0.592,0.538,1.094,1.038,1.594c0.5,0.5,1.002,0.808,1.594,1.038
		c0.572,0.222,1.227,0.375,2.185,0.418C9.249,20.99,9.556,21,12,21s2.751-0.01,3.711-0.054c0.958-0.044,1.612-0.196,2.185-0.418
		c0.592-0.23,1.094-0.538,1.594-1.038c0.5-0.5,0.808-1.002,1.038-1.594c0.222-0.572,0.375-1.227,0.418-2.185
		C20.99,14.751,21,14.444,21,12s-0.01-2.751-0.054-3.711c-0.044-0.958-0.196-1.612-0.418-2.185c-0.23-0.592-0.538-1.094-1.038-1.594
		c-0.5-0.5-1.002-0.808-1.594-1.038c-0.572-0.222-1.227-0.375-2.185-0.418C14.751,3.01,14.444,3,12,3L12,3z M12,7.378
		c-2.552,0-4.622,2.069-4.622,4.622S9.448,16.622,12,16.622s4.622-2.069,4.622-4.622S14.552,7.378,12,7.378z M12,15
		c-1.657,0-3-1.343-3-3s1.343-3,3-3s3,1.343,3,3S13.657,15,12,15z M16.804,6.116c-0.596,0-1.08,0.484-1.08,1.08
		s0.484,1.08,1.08,1.08c0.596,0,1.08-0.484,1.08-1.08S17.401,6.116,16.804,6.116z"/>
</g>
<g id="Layer_1">
</g>
</svg>
